!!!OTL: Feinslieb von Flandern
!!!ARE: Europa, Mitteleuropa, Deutschland
!!!SCT: A0217
!!!YEM: Copyright 1995, estate of Helmut Schaffrath.
**kern
*ICvox
*Ivox
*M4/4
*k[f#]
*G:
{4dd
=1
4dd
4b
4cc
4dd
=2
4.ee
8dd
4cc}
{4ee
=3
4dd
4cc
4b
4a
=4
2g
4r}
{4dd
=5
4dd
4b
4cc
4dd
=6
4.ee
8dd
4cc}
{4ee
=7
4dd
4cc
4b
4a
=8
2g
4r}
{4b
=9
4cc
4cc
4a
4b
=10
8cc
8b
8a
8g
4a}
{4a
=11
8b
8a
8b
8cc
4dd
4b
=12
8ee
8dd
8cc
8b
4a
4a
=13
2g
4r}
==
!!!AGN: Romanze, Ballade, Lied
!! Melodie aus Fragmenten hergestellt, die bei M. Franck, Fasc.
!!    quodl. 1611 No. 4 vorkommen.
!!!ONB: ESAC (Essen Associative Code) Database: ALTDEU
!!!AMT: simple quadruple
!!!AIN: vox
!!!EED: Helmut Schaffrath
!!!EEV: 1.0
*-
